X:1
T:Title
%%score { ( 1 3 ) | 2 }
L:1/8
M:6/8
K:F
V:1 treble nm="Grand Piano"
V:3 treble 
V:2 bass 
V:1
 z3 z2[Q:1/4=100] F | AAA A[GB][_A=B] | [Ac][Bd][Ac] [FA]2 [Ac] | [Ac][GB][FA] [EG]2 [GB] | %4
 [FA]3 [Ac]2 F | AAA A[GB][_A=B] | [Ac][Bd][Ac] [FA]2 [Ac] | [Ac][GB][FA] [EB][DB][EB] | %8
[M:5/8] A-A- A3 |[M:1/8] c |[M:3/4] A6 |[M:5/8] A-A- A3 |[M:1/8] [Ac] | %13
[M:3/4] [Ac][GB] [FA] [EG]2 [GB] | z2 F [Ac]2 c | BB BB [FB][FB] | [Ec]2 [Ec] [Ec]2 [Ec] | %17
 [F=B][FB] [FB][FB] [FB][FB] | [Ec][Ec] [Ec] [Ec]2 [CEB] | [CFA][CFA] [CFA][EG] [FA][GB] | %20
 z2 F [Ac]2 c | A6 | F6 |] %23
V:2
 z3 z2 [F,A,] | [F,C][F,D][F,E] [F,CF][F,C][F,C] | [F,F][F,F][F,F] [F,C]2 [F,C] | %3
 [C,C][C,C][C,C] [C,C]2 [C,C] | [F,C]3 [F,F]2 [F,A,] | [F,C][F,D][F,E] [F,CF][F,C][F,C] | %6
 [F,F][F,F][F,F] [F,C]2 [F,C] | [C,C][C,C][C,C] [C,C][C,C][C,C] | %8
[M:5/8][K:treble] [F,CF]-[F,CF]- [F,CF]3 |[M:1/8] A |[M:3/4] F2[K:bass] [C,C] [F,C]2[K:treble] A | %11
[M:5/8] F2[K:bass] [C,C] [F,C]2 |[M:1/8] [F,C] |[M:3/4] [C,C][C,C] [C,C] [C,C]2 [C,C] | %14
 [F,CF]2 [F,C][K:treble] [F,F]2 [F,A,F] | [G,F][A,F] [G,F][K:bass][F,F] E,D, | C,E, C,B,, A,,G,, | %17
 G,A, G,F, E,D, | C,E, G, C2 C, | F,F, F, [C,C]2 [C,C] | [F,CF]2 [F,C] [F,C]2[K:treble] A | %21
 F2[K:bass] [C,C] [F,C]2 C | A,2 [C,F,] [F,A,]3 |] %23
V:3
 x6 | x6 | x6 | x6 | x6 | x6 | x6 | x6 |[M:5/8] x5 |[M:1/8] x |[M:3/4] z2 F F2 c |[M:5/8] z2 F F2 | %12
[M:1/8] x |[M:3/4] x6 | A4 z2 | x6 | x6 | x6 | x6 | x6 | A4 z2 | z2 F F2 A | z2 A, C3 |] %23

